app/images/src/map-pin.svg

<svg width="32" height="39" viewBox="0 0 32 39" fill="none" xmlns="http://www.w3.org/2000/svg">
<path d="M27.3138 27.5771L16 39L4.68623 27.5771C2.44861 25.3179 0.924776 22.4394 0.307428 19.3058C-0.309919 16.1722 0.0069455 12.9241 1.21795 9.97229C2.42896 7.02048 4.47972 4.49753 7.1109 2.72248C9.74208 0.94743 12.8355 0 16 0C19.1645 0 22.2579 0.94743 24.8891 2.72248C27.5203 4.49753 29.571 7.02048 30.782 9.97229C31.9931 12.9241 32.3099 16.1722 31.6926 19.3058C31.0752 22.4394 29.5514 25.3179 27.3138 27.5771ZM16 19.744C16.943 19.744 17.8474 19.3658 18.5142 18.6926C19.181 18.0194 19.5556 17.1063 19.5556 16.1542C19.5556 15.2021 19.181 14.289 18.5142 13.6158C17.8474 12.9426 16.943 12.5643 16 12.5643C15.057 12.5643 14.1526 12.9426 13.4858 13.6158C12.819 14.289 12.4444 15.2021 12.4444 16.1542C12.4444 17.1063 12.819 18.0194 13.4858 18.6926C14.1526 19.3658 15.057 19.744 16 19.744Z" fill="#5879E8"/>
</svg>

<svg width="32" height="39" viewBox="0 0 32 39" fill="none" xmlns="http://www.w3.org/2000/svg"><path d="M27.314 27.577L16 39 4.686 27.577a16.203 16.203 0 01-4.379-8.271 16.3 16.3 0 01.911-9.334 16.122 16.122 0 015.893-7.25A15.891 15.891 0 0116 0c3.165 0 6.258.947 8.89 2.722a16.122 16.122 0 015.892 7.25 16.299 16.299 0 01.91 9.334 16.204 16.204 0 01-4.378 8.271zM16 19.744c.943 0 1.847-.378 2.514-1.051a3.607 3.607 0 001.042-2.539c0-.952-.375-1.865-1.042-2.538A3.539 3.539 0 0016 12.564a3.54 3.54 0 00-2.514 1.052 3.607 3.607 0 00-1.042 2.538 3.61 3.61 0 001.042 2.539A3.539 3.539 0 0016 19.744z" fill="#5879E8"/></svg>
